icons/fingerprint-2-line.svg

<svg viewBox="0 0 24 24" fill="currentColor" xmlns="http://www.w3.org/2000/svg">
    <path d="M12 1C16.9706 1 21 5.02944 21 10V14C21 18.9706 16.9706 23 12 23C10.9137 23 9.8724 22.8076 8.90826 22.4549C9.03638 22.2782 9.15938 22.0977 9.27703 21.9134L9.44782 21.633C10.388 20.0636 10.9461 18.2391 10.9963 16.2884L11 16V9H13V16C13 17.7724 12.6453 19.4619 12.0031 21.0015C12.7954 21 13.5599 20.8673 14.2724 20.6229C14.7147 19.2616 14.966 17.8148 14.9968 16.3138L15 16L14.9998 12.999H16.9998L17 16C17 17.0885 16.8977 18.1531 16.7022 19.1847C18.0583 17.9552 18.9297 16.2 18.9959 14.2407L19 14V10C19 6.13401 15.866 3 12 3C10.4277 3 8.97638 3.51841 7.8078 4.39364L6.38282 2.96769C7.92242 1.73631 9.87522 1 12 1ZM7 10C7 7.23858 9.23858 5 12 5C14.7614 5 17 7.23858 17 10V11H15V10C15 8.34315 13.6569 7 12 7C10.4023 7 9.09634 8.24892 9.00509 9.82373L9 10V16C9 17.5669 8.5996 19.0402 7.89554 20.3233L7.87214 20.3627C7.64284 20.7771 7.38087 21.1711 7.09037 21.5417C6.6495 21.2545 6.23541 20.9297 5.85264 20.5719L5.5445 20.2711C3.96956 18.65 3 16.4382 3 14V10C3 7.87522 3.73631 5.92242 4.96769 4.38282L6.39364 5.8078C5.56325 6.91652 5.05405 8.27971 5.00406 9.75935L5 10V14C5 15.6748 5.58816 17.2122 6.56918 18.4169C6.82239 17.7351 6.97017 17.0034 6.99594 16.2407L7 16V10Z"/>
</svg>

<svg xmlns="http://www.w3.org/2000/svg" viewBox="0 0 24 24">
    <g>
        <path fill="none" d="M0 0h24v24H0z"/>
        <path d="M12 1a9 9 0 0 1 9 9v4a9 9 0 0 1-12.092 8.455c.128-.177.251-.357.369-.542l.17-.28a10.918 10.918 0 0 0 1.55-5.345L11 16V9h2v7a12.96 12.96 0 0 1-.997 5.001 7.026 7.026 0 0 0 2.27-.378c.442-1.361.693-2.808.724-4.31L15 16v-3.001h2V16c0 1.088-.102 2.153-.298 3.185a6.978 6.978 0 0 0 2.294-4.944L19 14v-4A7 7 0 0 0 7.808 4.394L6.383 2.968A8.962 8.962 0 0 1 12 1zm-5 9a5 5 0 1 1 10 0v1h-2v-1a3 3 0 0 0-5.995-.176L9 10v6c0 1.567-.4 3.04-1.104 4.323l-.024.04c-.23.414-.491.808-.782 1.179a9.03 9.03 0 0 1-1.237-.97l-.309-.3A8.97 8.97 0 0 1 3 14v-4c0-2.125.736-4.078 1.968-5.617l1.426 1.425a6.966 6.966 0 0 0-1.39 3.951L5 10v4c0 1.675.588 3.212 1.57 4.417a6.91 6.91 0 0 0 .426-2.176L7 16v-6z"/>
    </g>
</svg>
